miku/luts/print-emulation.cube
TITLE "Print Emulation (hand-authored, MIT)"
LUT_3D_SIZE 9
DOMAIN_MIN 0.0 0.0 0.0
DOMAIN_MAX 1.0 1.0 1.0
0.034849 0.035053 0.035096
0.054699 0.034892 0.034936
0.107661 0.037205 0.037248
0.226166 0.049296 0.049343
0.424179 0.071590 0.071659
0.598954 0.091599 0.091692
0.683591 0.101323 0.101429
0.712864 0.104689 0.104799
0.721756 0.105712 0.105823
0.034275 0.054645 0.034555
0.054113 0.054485 0.034395
0.109363 0.055883 0.038975
0.229864 0.067146 0.053126
0.428415 0.089139 0.076151
0.603209 0.109049 0.096383
0.687822 0.118744 0.106173
0.717087 0.122102 0.109559
0.725977 0.123122 0.110587
0.042316 0.113444 0.042656
0.059430 0.114034 0.043013
0.114642 0.115712 0.044674
0.241496 0.124348 0.065244
0.441676 0.145406 0.090574
0.616515 0.165033 0.111475
0.701083 0.174652 0.121456
0.730341 0.177990 0.124898
0.739230 0.179005 0.125943
0.083615 0.262571 0.084231
0.098082 0.263892 0.084906
0.145725 0.267541 0.088488
0.271965 0.277207 0.097977
0.476925 0.295773 0.128970
0.652932 0.314620 0.151777
0.738146 0.324024 0.162342
0.767681 0.327304 0.165961
0.776661 0.328303 0.167057
0.160648 0.520149 0.161711
0.173701 0.521830 0.162132
0.218307 0.526053 0.166328
0.336945 0.537191 0.177463
0.542670 0.556193 0.196681
0.724981 0.573225 0.222177
0.813230 0.582041 0.233888
0.843834 0.585153 0.237852
0.853140 0.586103 0.239049
0.229718 0.748142 0.230550
0.242764 0.749737 0.231179
0.286887 0.753908 0.235530
0.404689 0.765012 0.247139
0.609888 0.784352 0.267366
0.795039 0.801925 0.285655
0.885159 0.810464 0.297961
0.916295 0.813500 0.302196
0.925752 0.814431 0.303471
0.263047 0.857877 0.263614
0.276341 0.859391 0.264493
0.320535 0.863601 0.268922
0.438512 0.874882 0.280758
0.643718 0.894701 0.301405
0.828350 0.912789 0.320058
0.918680 0.921726 0.329209
0.949924 0.924771 0.333436
0.959407 0.925701 0.334746
0.274581 0.895831 0.275058
0.287966 0.897324 0.276024
0.332195 0.901568 0.280483
0.450234 0.912953 0.292401
0.655390 0.932982 0.313187
0.839805 0.951255 0.331950
0.929980 0.960275 0.341149
0.961284 0.963418 0.344346
0.970781 0.964355 0.345580
0.278088 0.907368 0.278538
0.291499 0.908855 0.279530
0.335739 0.913110 0.283999
0.453794 0.924531 0.295942
0.658930 0.944626 0.316768
0.843276 0.962954 0.335563
0.933406 0.971998 0.344775
0.964692 0.975149 0.347977
0.974207 0.976108 0.348951
0.034791 0.034998 0.055201
0.054640 0.034836 0.055043
0.107832 0.037381 0.054388
0.226537 0.049680 0.063816
0.424602 0.072047 0.085207
0.599376 0.092077 0.104979
0.684010 0.101807 0.114647
0.713281 0.105174 0.117999
0.722173 0.106198 0.119017
0.034217 0.054591 0.054667
0.054053 0.054431 0.054510
0.116286 0.054233 0.054320
0.240508 0.064755 0.064844
0.440354 0.086486 0.086608
0.615522 0.106316 0.106477
0.700240 0.115988 0.116169
0.729535 0.119340 0.119528
0.738434 0.120358 0.120548
0.042497 0.113627 0.059748
0.053539 0.116621 0.054178
0.115301 0.116555 0.053820
0.249594 0.122980 0.074368
0.452426 0.143243 0.099724
0.628089 0.162620 0.120648
0.712904 0.172164 0.130641
0.742235 0.175480 0.134087
0.751145 0.176489 0.135133
0.084008 0.262971 0.098733
0.089620 0.267805 0.090680
0.139368 0.270969 0.092859
0.272954 0.278650 0.100368
0.484165 0.295024 0.134635
0.662114 0.313184 0.158543
0.747906 0.322386 0.169434
0.777610 0.325608 0.173146
0.786639 0.326590 0.174269
0.161118 0.520623 0.175367
0.164784 0.526030 0.166510
0.209409 0.530418 0.168996
0.331697 0.540566 0.179145
0.543778 0.557849 0.196651
0.730026 0.573452 0.224724
0.819422 0.581840 0.237322
0.850357 0.584828 0.241541
0.859758 0.585743 0.242811
0.230199 0.748605 0.243865
0.233316 0.754149 0.234621
0.277313 0.758492 0.237629
0.397684 0.768902 0.248548
0.607348 0.787041 0.267577
0.796508 0.803534 0.284788
0.888237 0.811477 0.298282
0.919831 0.814338 0.302906
0.929419 0.815218 0.304293
0.263530 0.858337 0.276791
0.266509 0.863956 0.267386
0.310800 0.868237 0.270846
0.431021 0.878915 0.282082
0.640111 0.897692 0.301687
0.828218 0.914847 0.319405
0.920241 0.923327 0.328100
0.952011 0.926177 0.332714
0.961643 0.927050 0.334154
0.275065 0.896293 0.288192
0.278007 0.901942 0.278741
0.322416 0.906219 0.282358
0.442602 0.917029 0.293702
0.651471 0.936062 0.313491
0.839205 0.953444 0.331361
0.930998 0.962028 0.340124
0.962863 0.965020 0.343169
0.972518 0.965900 0.344496
0.278572 0.907830 0.291660
0.281503 0.913488 0.282196
0.325947 0.917767 0.285860
0.446122 0.928620 0.297236
0.654921 0.947732 0.317079
0.842542 0.965181 0.334992
0.934267 0.973795 0.343774
0.966108 0.976796 0.346826
0.975790 0.977710 0.347755
0.035625 0.035806 0.106759
0.052928 0.036320 0.107402
0.108254 0.037991 0.109101
0.227722 0.050906 0.110117
0.425954 0.073506 0.128555
0.600727 0.093604 0.147492
0.685348 0.103354 0.156938
0.714616 0.106727 0.160230
0.723506 0.107752 0.161231
0.037396 0.054469 0.108565
0.054009 0.054389 0.117100
0.116034 0.054229 0.117139
0.241427 0.065721 0.114545
0.441571 0.087816 0.131674
0.616781 0.107755 0.150196
0.701502 0.117459 0.159516
0.730798 0.120819 0.162771
0.739696 0.121840 0.163762
0.043108 0.114206 0.114412
0.053531 0.116578 0.116824
0.115181 0.116511 0.116792
0.274248 0.117532 0.117867
0.485996 0.135837 0.136231
0.664367 0.154609 0.155082
0.749977 0.163975 0.164487
0.779539 0.167240 0.167765
0.788515 0.168235 0.168763
0.085265 0.264250 0.145126
0.090618 0.268828 0.140367
0.119059 0.280387 0.122110
0.274989 0.282167 0.122216
0.506751 0.292062 0.160064
0.691088 0.308198 0.185260
0.778785 0.316803 0.196530
0.809045 0.319853 0.200351
0.818233 0.320786 0.201506
0.162621 0.522137 0.219047
0.166161 0.527417 0.211807
0.182971 0.542805 0.187164
0.314366 0.550805 0.191625
0.546785 0.562588 0.203640
0.745782 0.573783 0.237906
0.838899 0.580853 0.252660
0.870906 0.583462 0.257498
0.880614 0.584269 0.258945
0.231737 0.750086 0.286442
0.234768 0.755543 0.278306
0.248339 0.771970 0.251200
0.374918 0.780962 0.257901
0.598869 0.795256 0.273075
0.800852 0.808300 0.286824
0.897764 0.814382 0.303535
0.930838 0.816698 0.309215
0.940850 0.817423 0.310905
0.265074 0.859810 0.318924
0.267979 0.865355 0.310485
0.280696 0.882196 0.282536
0.406749 0.891484 0.290499
0.628262 0.906930 0.306758
0.827481 0.921099 0.321476
0.924921 0.928121 0.328706
0.958380 0.930361 0.334404
0.968492 0.931055 0.336205
0.276613 0.897769 0.330191
0.279483 0.903348 0.321665
0.291960 0.920334 0.293476
0.417892 0.929751 0.301854
0.638637 0.945602 0.318446
0.836984 0.960132 0.333450
0.933952 0.967323 0.340815
0.967611 0.969832 0.343375
0.977776 0.970535 0.344965
0.280121 0.909308 0.333620
0.282981 0.914897 0.325069
0.295389 0.931927 0.296813
0.421286 0.941386 0.305312
0.641802 0.957359 0.322000
0.839894 0.971994 0.337088
0.936724 0.979235 0.344490
0.970335 0.981759 0.347064
0.980556 0.982528 0.347847
0.039792 0.039959 0.218367
0.054841 0.041076 0.219673
0.102970 0.044683 0.223349
0.230644 0.054260 0.233135
0.429543 0.077390 0.243948
0.604316 0.097670 0.260671
0.688911 0.107472 0.269529
0.718170 0.110861 0.272658
0.727058 0.111890 0.273614
0.043607 0.057816 0.222252
0.057687 0.058013 0.235490
0.108553 0.060849 0.238684
0.243510 0.068433 0.246494
0.444802 0.091356 0.251653
0.620128 0.111585 0.266592
0.704862 0.121372 0.274922
0.734163 0.124757 0.277898
0.743063 0.125786 0.278810
0.055838 0.114986 0.234747
0.067340 0.116201 0.245435
0.115624 0.116967 0.276477
0.273652 0.118172 0.278649
0.488076 0.138272 0.271017
0.666954 0.157680 0.281852
0.752716 0.167233 0.288956
0.782327 0.170553 0.291576
0.791318 0.171563 0.292385
0.088706 0.267633 0.268573
0.093412 0.271519 0.272552
0.119719 0.280886 0.282238
0.274666 0.282729 0.284427
0.559516 0.280803 0.282849
0.764327 0.292258 0.294252
0.857392 0.299681 0.301638
0.889216 0.302390 0.304331
0.898856 0.303225 0.305161
0.166618 0.526155 0.335237
0.169821 0.531095 0.332295
0.185555 0.545397 0.321389
0.268219 0.572348 0.281241
0.550830 0.571051 0.274796
0.784896 0.571722 0.310219
0.888281 0.575685 0.325646
0.923244 0.577402 0.330672
0.933800 0.577953 0.332173
0.235823 0.754016 0.399609
0.238624 0.759242 0.394422
0.251471 0.774930 0.376754
0.314761 0.808980 0.321688
0.573667 0.814277 0.323436
0.809760 0.818160 0.327854
0.920755 0.819642 0.348785
0.957861 0.820622 0.355870
0.969029 0.820962 0.357963
0.269178 0.863725 0.430907
0.271884 0.869073 0.425040
0.283973 0.885283 0.405325
0.341822 0.921697 0.345803
0.594427 0.929067 0.351127
0.823188 0.935306 0.357805
0.935030 0.938456 0.361118
0.973062 0.939167 0.368522
0.984481 0.939417 0.370890
0.280727 0.901697 0.441823
0.283407 0.907089 0.435762
0.295282 0.923474 0.415465
0.351540 0.960627 0.354699
0.602271 0.968657 0.361121
0.828837 0.975611 0.368458
0.939559 0.979103 0.372087
0.977989 0.980327 0.373352
0.989527 0.980578 0.375383
0.284238 0.913242 0.445152
0.286911 0.918646 0.439036
0.298724 0.935084 0.418574
0.354522 0.972455 0.357455
0.604706 0.980679 0.364193
0.830636 0.987840 0.371719
0.941037 0.991430 0.375439
0.979353 0.992687 0.376735
0.991005 0.993071 0.377129
0.047484 0.047669 0.404915
0.061718 0.048997 0.406505
0.107254 0.053292 0.410954
0.228018 0.064689 0.422814
0.435315 0.084276 0.443360
0.610521 0.104707 0.456688
0.695088 0.114601 0.464520
0.724341 0.118017 0.467365
0.733228 0.119054 0.468240
0.052029 0.065247 0.409614
0.065199 0.065544 0.424534
0.112056 0.069440 0.428972
0.236373 0.079851 0.439877
0.449699 0.097747 0.458776
0.625919 0.118212 0.468199
0.710699 0.128148 0.474798
0.740017 0.131576 0.477285
0.748922 0.132617 0.478057
0.066592 0.121540 0.424750
0.078465 0.122345 0.438391
0.122105 0.123375 0.480435
0.257604 0.130578 0.489299
0.490093 0.143107 0.502934
0.671455 0.162991 0.501456
0.757510 0.172870 0.504527
0.787217 0.176285 0.505987
0.796237 0.177322 0.506463
0.105598 0.271919 0.465714
0.114048 0.274056 0.475965
0.146611 0.279375 0.507210
0.273867 0.282391 0.578980
0.556930 0.280535 0.581572
0.765695 0.293977 0.561871
0.859757 0.302205 0.558743
0.891892 0.305147 0.558384
0.901623 0.306049 0.558335
0.173684 0.533022 0.536049
0.176388 0.537352 0.540502
0.190489 0.549718 0.553251
0.268569 0.571608 0.576064
0.550692 0.569971 0.574029
0.810128 0.567061 0.570483
0.937736 0.565590 0.568664
0.982157 0.565075 0.568026
0.995679 0.564918 0.567832
0.242868 0.760780 0.594961
0.245273 0.765609 0.594880
0.256867 0.780021 0.593556
0.316936 0.810655 0.582069
0.551442 0.825529 0.561585
0.814131 0.822363 0.558171
0.942758 0.820898 0.556606
0.987431 0.820403 0.556079
1.000000 0.820254 0.555920
0.276264 0.870493 0.624232
0.278626 0.875501 0.622822
0.289626 0.890621 0.617378
0.344645 0.924106 0.595926
0.550932 0.949918 0.556100
0.813869 0.947038 0.553163
0.942394 0.945720 0.551824
0.987004 0.945275 0.551373
1.000000 0.945140 0.551236
0.287833 0.908497 0.634565
0.290184 0.913565 0.632776
0.301016 0.928910 0.626159
0.354550 0.963272 0.601880
0.550460 0.993157 0.554385
0.813382 0.990392 0.551601
0.941850 0.989123 0.550326
0.986437 0.988694 0.549895
0.999995 0.988564 0.549764
0.291351 0.920054 0.637729
0.293699 0.925139 0.635832
0.304482 0.940551 0.628879
0.357587 0.975169 0.603794
0.550288 1.000000 0.553883
0.813200 1.000000 0.551142
0.941651 1.000000 0.549884
0.986230 1.000000 0.549458
0.999785 1.000000 0.549329
0.054451 0.054660 0.571138
0.068425 0.056051 0.572859
0.113136 0.060557 0.577609
0.231687 0.072510 0.590286
0.435124 0.093044 0.612279
0.615477 0.111263 0.631916
0.700653 0.120996 0.639447
0.729910 0.124438 0.642027
0.738798 0.125482 0.642828
0.059223 0.072161 0.576157
0.072105 0.072490 0.591601
0.117699 0.076707 0.596528
0.238655 0.087983 0.608570
0.446167 0.107355 0.629453
0.630146 0.124547 0.648068
0.715969 0.134224 0.654109
0.745312 0.137693 0.656145
0.754227 0.138745 0.656788
0.074514 0.128214 0.592347
0.086491 0.128894 0.606903
0.128674 0.130009 0.652351
0.257151 0.139041 0.663572
0.477641 0.154723 0.680862
0.673307 0.168647 0.696136
0.761879 0.177923 0.697886
0.791684 0.181424 0.698280
0.800734 0.182487 0.698449
0.115445 0.277981 0.636192
0.125031 0.279582 0.648371
0.159478 0.283659 0.686238
0.278927 0.286843 0.778986
0.533879 0.292396 0.790574
0.762135 0.297509 0.796169
0.862021 0.304458 0.788885
0.894441 0.307611 0.785744
0.904257 0.308574 0.784894
0.186670 0.537711 0.710168
0.192268 0.540804 0.718239
0.213940 0.549674 0.743017
0.299676 0.565653 0.801241
0.550651 0.568976 0.841459
0.810603 0.566017 0.837137
0.938432 0.564537 0.834945
0.982921 0.564021 0.834182
0.996462 0.563865 0.833950
0.249265 0.766782 0.769501
0.251369 0.771240 0.773988
0.261980 0.784475 0.787294
0.319324 0.812010 0.814880
0.551434 0.824419 0.826677
0.814225 0.821331 0.822827
0.942846 0.819906 0.821101
0.987510 0.819425 0.820526
1.000000 0.819280 0.820354
0.282599 0.876557 0.797034
0.284653 0.881261 0.799627
0.294677 0.895404 0.807000
0.347149 0.926268 0.819729
0.550668 0.948906 0.820555
0.813601 0.946113 0.817398
0.942092 0.944831 0.815987
0.986687 0.944397 0.815514
1.000000 0.944266 0.815372
0.294190 0.914597 0.806876
0.296246 0.919375 0.808925
0.306142 0.933790 0.814591
0.357225 0.965650 0.823070
0.550109 0.992186 0.818703
0.813010 0.989502 0.815755
0.941445 0.988265 0.814427
0.986017 0.987846 0.813981
0.999571 0.987719 0.813847
0.297715 0.926167 0.809903
0.299772 0.930966 0.811795
0.309631 0.945460 0.816974
0.360312 0.977611 0.824236
0.549912 1.000000 0.818166
0.812799 1.000000 0.815275
0.941217 1.000000 0.813970
0.985783 1.000000 0.813531
0.999335 1.000000 0.813399
0.057863 0.058086 0.652280
0.071758 0.059495 0.654054
0.116218 0.064062 0.658915
0.234092 0.076177 0.671892
0.436343 0.096985 0.694415
0.615659 0.115447 0.714509
0.702684 0.124407 0.724235
0.732649 0.127577 0.727421
0.741540 0.128625 0.728183
0.062703 0.075567 0.657417
0.075498 0.075905 0.673019
0.120711 0.080216 0.678125
0.240654 0.091743 0.690562
0.446410 0.111544 0.712129
0.628861 0.129116 0.731329
0.717446 0.137646 0.740601
0.747922 0.140683 0.743588
0.756842 0.141741 0.744166
0.078211 0.131559 0.673999
0.090215 0.132203 0.688825
0.131962 0.133344 0.735278
0.258353 0.142907 0.747284
0.475288 0.159508 0.765732
0.667871 0.174244 0.781978
0.761557 0.181400 0.789746
0.793901 0.183936 0.792265
0.802967 0.185011 0.792282
0.119717 0.281170 0.718891
0.129632 0.282614 0.731634
0.164621 0.286327 0.771438
0.281772 0.289557 0.870314
0.528507 0.297259 0.884591
0.749603 0.304317 0.892090
0.857919 0.307702 0.895435
0.895604 0.308869 0.896548
0.905597 0.309807 0.895438
0.191852 0.540454 0.793886
0.198297 0.543185 0.803008
0.222185 0.551028 0.831283
0.310181 0.565265 0.899816
0.550654 0.568483 0.971863
0.810847 0.565505 0.967149
0.938774 0.564023 0.964778
0.983292 0.563508 0.963956
0.996841 0.563352 0.963706
0.255228 0.768994 0.853286
0.258654 0.772906 0.859302
0.272997 0.784529 0.877644
0.336532 0.808780 0.919728
0.551412 0.823886 0.955978
0.814242 0.820837 0.951949
0.942856 0.819433 0.950162
0.987514 0.818958 0.949569
1.000000 0.818815 0.949391
0.285754 0.879504 0.881304
0.287688 0.884051 0.885848
0.297313 0.897696 0.899470
0.348624 0.927257 0.928899
0.550520 0.948423 0.949601
0.813446 0.945670 0.946364
0.941920 0.944405 0.944928
0.986509 0.943976 0.944449
1.000000 0.943847 0.944305
0.297293 0.917582 0.890936
0.299205 0.922218 0.894862
0.308643 0.936177 0.906539
0.358525 0.966816 0.931041
0.549920 0.991724 0.947698
0.812808 0.989076 0.944693
0.941227 0.987854 0.943349
0.985794 0.987439 0.942898
0.999345 0.987314 0.942762
0.300822 0.929158 0.893900
0.302737 0.933818 0.897646
0.312143 0.947863 0.908760
0.361636 0.978808 0.931843
0.549711 1.000000 0.947148
0.812584 1.000000 0.944207
0.940987 1.000000 0.942887
0.985547 1.000000 0.942444
0.999097 1.000000 0.942311
0.059048 0.059276 0.680444
0.072919 0.060690 0.682236
0.117306 0.065275 0.687131
0.234980 0.077436 0.700205
0.436881 0.098323 0.722896
0.615893 0.116855 0.743133
0.702780 0.125849 0.752922
0.732870 0.128963 0.756299
0.742015 0.129910 0.757323
0.063907 0.076751 0.685619
0.076677 0.077092 0.701266
0.121779 0.081430 0.706429
0.241425 0.093030 0.718990
0.446668 0.112954 0.740770
0.628673 0.130635 0.760148
0.717054 0.139218 0.769499
0.747671 0.142191 0.772721
0.756977 0.143094 0.773698
0.079479 0.132728 0.702326
0.091491 0.133361 0.717231
0.133110 0.134510 0.763975
0.258895 0.144225 0.776221
0.474799 0.161091 0.795015
0.666493 0.176060 0.811546
0.759762 0.183330 0.819442
0.792110 0.185848 0.822149
0.801947 0.186613 0.822968
0.121153 0.282297 0.747549
0.131162 0.283696 0.760454
0.166306 0.287304 0.800816
0.282792 0.290546 0.901458
0.527162 0.298865 0.916513
0.746203 0.306482 0.924549
0.853530 0.310142 0.928146
0.890873 0.311403 0.929344
0.902240 0.311786 0.929704
0.193548 0.541445 0.822819
0.200237 0.544071 0.832244
0.224764 0.551618 0.861524
0.313415 0.565351 0.933020
0.550659 0.568311 1.000000
0.810933 0.565327 1.000000
0.938892 0.563845 1.000000
0.983419 0.563330 1.000000
0.996971 0.563174 1.000000
0.257145 0.769822 0.882184
0.260953 0.773576 0.888640
0.276373 0.784735 0.908434
0.341696 0.808041 0.954694
0.551402 0.823703 1.000000
0.814244 0.820668 0.996745
0.942855 0.819270 0.994938
0.987511 0.818797 0.994339
1.000000 0.818655 0.994160
0.287792 0.880278 0.910222
0.290177 0.884642 0.915278
0.301094 0.897737 0.930581
0.354747 0.926132 0.964802
0.550466 0.948257 0.994373
0.813389 0.945518 0.991112
0.941858 0.944258 0.989669
0.986444 0.943831 0.989188
1.000000 0.943703 0.989044
0.298421 0.918605 0.920083
0.300307 0.923185 0.924655
0.309646 0.936970 0.938403
0.359176 0.967167 0.968451
0.549852 0.991565 0.992455
0.812735 0.988930 0.989433
0.941149 0.987712 0.988084
0.985713 0.987299 0.987632
0.999264 0.987174 0.987497
0.301900 0.930198 0.923039
0.303766 0.934809 0.927430
0.313015 0.948698 0.940605
0.362095 0.979225 0.969183
0.549638 1.000000 0.991901
0.812507 1.000000 0.988945
0.940905 1.000000 0.987622
0.985463 1.000000 0.987177
0.999012 1.000000 0.987044
0.059408 0.059638 0.689008
0.073273 0.061053 0.690806
0.117638 0.065643 0.695712
0.235255 0.077818 0.708814
0.437054 0.098728 0.731555
0.615979 0.117279 0.751834
0.702826 0.126283 0.761642
0.732903 0.129401 0.765025
0.742044 0.130348 0.766051
0.064274 0.077112 0.694195
0.077036 0.077454 0.709855
0.122106 0.081799 0.715036
0.241667 0.093420 0.727633
0.446760 0.113379 0.749475
0.628638 0.131091 0.768905
0.716959 0.139690 0.778280
0.747557 0.142668 0.781509
0.756857 0.143573 0.782489
0.079863 0.133084 0.710939
0.091878 0.133714 0.725867
0.133460 0.134865 0.772695
0.259070 0.144624 0.785011
0.474678 0.161565 0.803905
0.666117 0.176602 0.820518
0.759267 0.183905 0.828451
0.791574 0.186434 0.831170
0.801398 0.187203 0.831993
0.121586 0.282642 0.756260
0.131622 0.284027 0.769212
0.166810 0.287605 0.809734
0.283105 0.290851 0.910882
0.526796 0.299346 0.926161
0.745249 0.307124 0.934350
0.852292 0.310862 0.938018
0.889537 0.312151 0.939241
0.900875 0.312542 0.939608
0.194056 0.541750 0.831607
0.200815 0.544346 0.841118
0.225525 0.551807 0.870687
0.314364 0.565395 0.943033
0.550660 0.568258 1.000000
0.810959 0.565273 1.000000
0.938927 0.563791 1.000000
0.983458 0.563276 1.000000
0.997010 0.563120 1.000000
0.257716 0.770078 0.890957
0.261632 0.773788 0.897539
0.277362 0.784813 0.917749
0.343198 0.807848 0.965208
0.551399 0.823648 1.000000
0.814244 0.820617 1.000000
0.942854 0.819220 1.000000
0.987509 0.818748 1.000000
1.000000 0.818606 1.000000
0.288397 0.880520 0.918998
0.290911 0.884830 0.924201
0.302200 0.897769 0.939987
0.356525 0.925828 0.975584
0.550449 0.948207 1.000000
0.813371 0.945472 1.000000
0.941838 0.944214 1.000000
0.986424 0.943788 1.000000
0.999982 0.943659 1.000000
0.299038 0.918842 0.928865
0.301060 0.923367 0.933591
0.310793 0.936986 0.947844
0.361050 0.966826 0.979329
0.549831 0.991517 1.000000
0.812713 0.988885 1.000000
0.941125 0.987669 1.000000
0.985689 0.987256 1.000000
0.999239 0.987131 1.000000
0.302275 0.930501 0.931886
0.304148 0.935091 0.936466
0.313405 0.948918 0.950254
0.362419 0.979301 0.980486
0.549616 1.000000 1.000000
0.812483 1.000000 1.000000
0.940880 1.000000 1.000000
0.985437 1.000000 1.000000
0.998986 1.000000 1.000000
