miku/luts/print-emulation.cube
TITLE "Print Emulation (hand-authored, MIT)"
LUT_3D_SIZE 5
DOMAIN_MIN 0.0 0.0 0.0
DOMAIN_MAX 1.0 1.0 1.0
0.034849 0.035053 0.035096
0.107661 0.037205 0.037248
0.424179 0.071590 0.071659
0.683591 0.101323 0.101429
0.721756 0.105712 0.105823
0.042316 0.113444 0.042656
0.114642 0.115712 0.044674
0.441676 0.145406 0.090574
0.701083 0.174652 0.121456
0.739230 0.179005 0.125943
0.160648 0.520149 0.161711
0.218307 0.526053 0.166328
0.542670 0.556193 0.196681
0.813230 0.582041 0.233888
0.853140 0.586103 0.239049
0.263047 0.857877 0.263614
0.320535 0.863601 0.268922
0.643718 0.894701 0.301405
0.918680 0.921726 0.329209
0.959407 0.925701 0.334746
0.278088 0.907368 0.278538
0.335739 0.913110 0.283999
0.658930 0.944626 0.316768
0.933406 0.971998 0.344775
0.974207 0.976108 0.348951
0.035625 0.035806 0.106759
0.108254 0.037991 0.109101
0.425954 0.073506 0.128555
0.685348 0.103354 0.156938
0.723506 0.107752 0.161231
0.043108 0.114206 0.114412
0.115181 0.116511 0.116792
0.485996 0.135837 0.136231
0.749977 0.163975 0.164487
0.788515 0.168235 0.168763
0.162621 0.522137 0.219047
0.182971 0.542805 0.187164
0.546785 0.562588 0.203640
0.838899 0.580853 0.252660
0.880614 0.584269 0.258945
0.265074 0.859810 0.318924
0.280696 0.882196 0.282536
0.628262 0.906930 0.306758
0.924921 0.928121 0.328706
0.968492 0.931055 0.336205
0.280121 0.909308 0.333620
0.295389 0.931927 0.296813
0.641802 0.957359 0.322000
0.936724 0.979235 0.344490
0.980556 0.982528 0.347847
0.047484 0.047669 0.404915
0.107254 0.053292 0.410954
0.435315 0.084276 0.443360
0.695088 0.114601 0.464520
0.733228 0.119054 0.468240
0.066592 0.121540 0.424750
0.122105 0.123375 0.480435
0.490093 0.143107 0.502934
0.757510 0.172870 0.504527
0.796237 0.177322 0.506463
0.173684 0.533022 0.536049
0.190489 0.549718 0.553251
0.550692 0.569971 0.574029
0.937736 0.565590 0.568664
0.995679 0.564918 0.567832
0.276264 0.870493 0.624232
0.289626 0.890621 0.617378
0.550932 0.949918 0.556100
0.942394 0.945720 0.551824
1.000000 0.945140 0.551236
0.291351 0.920054 0.637729
0.304482 0.940551 0.628879
0.550288 1.000000 0.553883
0.941651 1.000000 0.549884
0.999785 1.000000 0.549329
0.057863 0.058086 0.652280
0.116218 0.064062 0.658915
0.436343 0.096985 0.694415
0.702684 0.124407 0.724235
0.741540 0.128625 0.728183
0.078211 0.131559 0.673999
0.131962 0.133344 0.735278
0.475288 0.159508 0.765732
0.761557 0.181400 0.789746
0.802967 0.185011 0.792282
0.191852 0.540454 0.793886
0.222185 0.551028 0.831283
0.550654 0.568483 0.971863
0.938774 0.564023 0.964778
0.996841 0.563352 0.963706
0.285754 0.879504 0.881304
0.297313 0.897696 0.899470
0.550520 0.948423 0.949601
0.941920 0.944405 0.944928
1.000000 0.943847 0.944305
0.300822 0.929158 0.893900
0.312143 0.947863 0.908760
0.549711 1.000000 0.947148
0.940987 1.000000 0.942887
0.999097 1.000000 0.942311
0.059408 0.059638 0.689008
0.117638 0.065643 0.695712
0.437054 0.098728 0.731555
0.702826 0.126283 0.761642
0.742044 0.130348 0.766051
0.079863 0.133084 0.710939
0.133460 0.134865 0.772695
0.474678 0.161565 0.803905
0.759267 0.183905 0.828451
0.801398 0.187203 0.831993
0.194056 0.541750 0.831607
0.225525 0.551807 0.870687
0.550660 0.568258 1.000000
0.938927 0.563791 1.000000
0.997010 0.563120 1.000000
0.288397 0.880520 0.918998
0.302200 0.897769 0.939987
0.550449 0.948207 1.000000
0.941838 0.944214 1.000000
0.999982 0.943659 1.000000
0.302275 0.930501 0.931886
0.313405 0.948918 0.950254
0.549616 1.000000 1.000000
0.940880 1.000000 1.000000
0.998986 1.000000 1.000000
