miku/luts/print-emulation.cube
TITLE "Print Emulation (hand-authored, MIT)"
LUT_3D_SIZE 33
DOMAIN_MIN 0.0 0.0 0.0
DOMAIN_MAX 1.0 1.0 1.0
0.034849 0.035053 0.035096
0.037824 0.035029 0.035072
0.041861 0.034996 0.035040
0.047327 0.034952 0.034996
0.054699 0.034892 0.034936
0.064597 0.034811 0.034856
0.076660 0.035013 0.035058
0.090458 0.035863 0.035906
0.107661 0.037205 0.037248
0.129090 0.039141 0.039183
0.155580 0.041763 0.041805
0.187826 0.045139 0.045183
0.226166 0.049296 0.049343
0.270350 0.054190 0.054241
0.319363 0.059693 0.059749
0.371421 0.065586 0.065648
0.424179 0.071590 0.071659
0.475146 0.077411 0.077486
0.522145 0.082790 0.082872
0.563658 0.087549 0.087636
0.598954 0.091599 0.091692
0.628002 0.094935 0.095032
0.651276 0.097608 0.097709
0.669524 0.099706 0.099809
0.683591 0.101323 0.101429
0.694294 0.102553 0.102661
0.702356 0.103481 0.103589
0.708383 0.104174 0.104283
0.712864 0.104689 0.104799
0.716181 0.105071 0.105181
0.718629 0.105352 0.105463
0.720431 0.105559 0.105671
0.721756 0.105712 0.105823
0.034763 0.037989 0.035015
0.037738 0.037964 0.034991
0.041775 0.037932 0.034958
0.047240 0.037887 0.034914
0.054611 0.037827 0.034855
0.064509 0.037747 0.034775
0.076660 0.037915 0.035043
0.090606 0.038707 0.036036
0.107936 0.039998 0.037502
0.129471 0.041892 0.039541
0.156047 0.044478 0.042247
0.188361 0.047827 0.045691
0.226753 0.051961 0.049901
0.270976 0.056839 0.054838
0.320018 0.062327 0.060373
0.372096 0.068209 0.066293
0.424868 0.074205 0.072317
0.475845 0.080018 0.078154
0.522851 0.085392 0.083547
0.564369 0.090146 0.088316
0.599668 0.094193 0.092374
0.628719 0.097525 0.095716
0.651995 0.100197 0.098395
0.670244 0.102293 0.100496
0.684313 0.103909 0.102116
0.695017 0.105139 0.103348
0.703080 0.106065 0.104277
0.709107 0.106758 0.104971
0.713589 0.107273 0.105488
0.716906 0.107654 0.105870
0.719354 0.107935 0.106152
0.721156 0.108142 0.106359
0.722481 0.108295 0.106512
0.034647 0.041973 0.034905
0.037621 0.041949 0.034881
0.041657 0.041916 0.034848
0.047121 0.041871 0.034804
0.054492 0.041812 0.034745
0.064389 0.041731 0.034665
0.076637 0.041861 0.035029
0.090779 0.042574 0.036218
0.108278 0.043798 0.037855
0.129953 0.045634 0.040036
0.156641 0.048175 0.042857
0.189041 0.051487 0.046392
0.227498 0.055593 0.050673
0.271766 0.060449 0.055663
0.320839 0.065921 0.061239
0.372936 0.071791 0.067188
0.425718 0.077777 0.073235
0.476698 0.083583 0.079087
0.523703 0.088952 0.084491
0.565219 0.093702 0.089269
0.600516 0.097746 0.093333
0.629564 0.101077 0.096679
0.652837 0.103747 0.099361
0.671085 0.105842 0.101465
0.685152 0.107457 0.103086
0.695855 0.108686 0.104320
0.703917 0.109612 0.105250
0.709945 0.110304 0.105945
0.714425 0.110819 0.106461
0.717742 0.111200 0.106844
0.720190 0.111482 0.107126
0.721992 0.111689 0.107334
0.723317 0.111841 0.107487
0.034488 0.047367 0.034756
0.037462 0.047343 0.034732
0.041498 0.047310 0.034699
0.046961 0.047266 0.034655
0.054331 0.047206 0.034596
0.064226 0.047126 0.034517
0.076606 0.047203 0.035010
0.091013 0.047810 0.036465
0.108740 0.048942 0.038332
0.130604 0.050701 0.040706
0.157444 0.053180 0.043683
0.189962 0.056442 0.047341
0.228506 0.060510 0.051717
0.272836 0.065336 0.056780
0.321950 0.070786 0.062411
0.374072 0.076639 0.068400
0.426867 0.082613 0.074476
0.477852 0.088410 0.080351
0.524856 0.093771 0.085770
0.566370 0.098517 0.090559
0.601662 0.102557 0.094631
0.630707 0.105885 0.097984
0.653978 0.108554 0.100670
0.672223 0.110647 0.102776
0.686289 0.112261 0.104400
0.696990 0.113489 0.105636
0.705051 0.114415 0.106567
0.711078 0.115107 0.107263
0.715558 0.115621 0.107780
0.718875 0.116002 0.108163
0.721322 0.116284 0.108446
0.723124 0.116490 0.108654
0.724449 0.116643 0.108807
0.034275 0.054645 0.034555
0.037248 0.054621 0.034531
0.041283 0.054589 0.034499
0.046745 0.054545 0.034455
0.054113 0.054485 0.034395
0.064005 0.054406 0.034316
0.076562 0.054411 0.034983
0.091327 0.054875 0.036797
0.109363 0.055883 0.038975
0.131483 0.057539 0.041609
0.158527 0.059933 0.044796
0.191203 0.063129 0.048621
0.229864 0.067146 0.053126
0.274278 0.071932 0.058287
0.323447 0.077352 0.063991
0.375603 0.083182 0.070035
0.428415 0.089139 0.076151
0.479406 0.094923 0.082055
0.526411 0.100276 0.087495
0.567920 0.105014 0.092299
0.603209 0.109049 0.096383
0.632249 0.112374 0.099743
0.655516 0.115040 0.102435
0.673759 0.117131 0.104546
0.687822 0.118744 0.106173
0.698522 0.119971 0.107411
0.706582 0.120896 0.108344
0.712608 0.121588 0.109041
0.717087 0.122102 0.109559
0.720404 0.122483 0.109943
0.722851 0.122764 0.110226
0.724653 0.122970 0.110434
0.725977 0.123122 0.110587
0.033988 0.064421 0.034285
0.036960 0.064397 0.034262
0.040994 0.064365 0.034229
0.046454 0.064321 0.034185
0.053819 0.064262 0.034126
0.063708 0.064183 0.034047
0.076501 0.064095 0.034944
0.091746 0.064366 0.037241
0.110196 0.065207 0.039837
0.132660 0.066723 0.042820
0.159979 0.069004 0.046290
0.192867 0.072111 0.050339
0.231686 0.076058 0.055018
0.276211 0.080791 0.060310
0.325455 0.086171 0.066113
0.377656 0.091971 0.072231
0.430491 0.097905 0.078401
0.481491 0.103672 0.084343
0.528495 0.109012 0.089812
0.570001 0.113742 0.094637
0.605284 0.117770 0.098735
0.634319 0.121090 0.102107
0.657582 0.123753 0.104807
0.675821 0.125842 0.106923
0.689882 0.127453 0.108555
0.700580 0.128679 0.109796
0.708639 0.129603 0.110730
0.714664 0.130294 0.111429
0.719143 0.130808 0.111949
0.722459 0.131188 0.112333
0.724905 0.131468 0.112617
0.726707 0.131675 0.112826
0.728031 0.131827 0.112980
0.034817 0.076989 0.035127
0.037603 0.077028 0.035025
0.041521 0.077027 0.035023
0.046825 0.077024 0.035020
0.053981 0.077022 0.035017
0.063587 0.077018 0.035012
0.076405 0.077013 0.035006
0.092300 0.077036 0.037831
0.111304 0.077654 0.040985
0.134226 0.078984 0.044434
0.161912 0.081114 0.048283
0.195083 0.084101 0.052631
0.234112 0.087956 0.057541
0.278786 0.092618 0.063010
0.328129 0.097944 0.068945
0.380389 0.103704 0.075160
0.433256 0.109608 0.081402
0.484268 0.115353 0.087397
0.531274 0.120677 0.092904
0.572775 0.125394 0.097756
0.608052 0.129414 0.101875
0.637082 0.132728 0.105261
0.660340 0.135386 0.107972
0.678576 0.137471 0.110096
0.692634 0.139080 0.111733
0.703331 0.140305 0.112979
0.711388 0.141228 0.113917
0.717412 0.141918 0.114618
0.721891 0.142431 0.115139
0.725206 0.142811 0.115525
0.727652 0.143091 0.115809
0.729454 0.143297 0.116019
0.730778 0.143449 0.116173
0.037733 0.092904 0.038052
0.040331 0.092998 0.037965
0.044033 0.093054 0.038020
0.049045 0.093130 0.038096
0.055806 0.093234 0.038198
0.064883 0.093372 0.038335
0.076993 0.093557 0.038517
0.093014 0.093801 0.038759
0.112762 0.094136 0.042499
0.136292 0.095220 0.046567
0.164463 0.097150 0.050918
0.198009 0.099979 0.055661
0.237315 0.103710 0.060878
0.282186 0.108279 0.066581
0.331660 0.113534 0.072692
0.383999 0.119241 0.079037
0.436908 0.125105 0.085375
0.487937 0.130821 0.091439
0.534945 0.136123 0.096997
0.576443 0.140824 0.101886
0.611715 0.144833 0.106031
0.640740 0.148139 0.109437
0.663994 0.150791 0.112162
0.682228 0.152873 0.114298
0.696284 0.154479 0.115943
0.706980 0.155701 0.117194
0.715037 0.156623 0.118136
0.721060 0.157311 0.118840
0.725538 0.157824 0.119364
0.728854 0.158203 0.119751
0.731300 0.158483 0.120037
0.733102 0.158689 0.120247
0.734426 0.158841 0.120402
0.042316 0.113444 0.042656
0.044741 0.113588 0.042571
0.048255 0.113695 0.042676
0.053013 0.113839 0.042820
0.059430 0.114034 0.043013
0.068046 0.114296 0.043272
0.079540 0.114645 0.043618
0.094747 0.115107 0.044075
0.114642 0.115712 0.044674
0.138983 0.116488 0.049352
0.167790 0.118156 0.054360
0.201826 0.120777 0.059625
0.241496 0.124348 0.065244
0.286623 0.128794 0.071254
0.336267 0.133956 0.077595
0.388711 0.139593 0.084111
0.441676 0.145406 0.090574
0.492731 0.151084 0.096730
0.539747 0.156358 0.102355
0.581245 0.161039 0.107293
0.616515 0.165033 0.111475
0.645538 0.168329 0.114907
0.668792 0.170974 0.117651
0.687025 0.173050 0.119801
0.701083 0.174652 0.121456
0.711779 0.175872 0.122715
0.719837 0.176792 0.123663
0.725862 0.177479 0.124371
0.730341 0.177990 0.124898
0.733656 0.178369 0.125288
0.736103 0.178648 0.125575
0.737905 0.178854 0.125787
0.739230 0.179005 0.125943
0.048914 0.139696 0.049290
0.051178 0.139889 0.049191
0.054534 0.140038 0.049338
0.059077 0.140239 0.049538
0.065204 0.140511 0.049807
0.073431 0.140877 0.050168
0.084406 0.141364 0.050650
0.098926 0.142009 0.051288
0.117921 0.142852 0.052123
0.142413 0.143940 0.053199
0.172061 0.145290 0.058792
0.206730 0.147643 0.064731
0.246869 0.151005 0.070873
0.292327 0.155292 0.077280
0.342193 0.160335 0.083919
0.394773 0.165882 0.090657
0.447816 0.171628 0.097283
0.498910 0.177257 0.103559
0.545946 0.182495 0.109272
0.587454 0.187151 0.114274
0.622730 0.191127 0.118503
0.651760 0.194409 0.121970
0.675021 0.197044 0.124740
0.693261 0.199114 0.126909
0.707325 0.200711 0.128579
0.718027 0.201928 0.129848
0.726089 0.202845 0.130803
0.732117 0.203531 0.131518
0.736599 0.204041 0.132048
0.739917 0.204418 0.132441
0.742365 0.204697 0.132731
0.744168 0.204903 0.132944
0.745494 0.205053 0.133101
0.057851 0.172759 0.058282
0.059960 0.173001 0.058148
0.063185 0.173184 0.058330
0.067551 0.173432 0.058575
0.073441 0.173767 0.058906
0.081347 0.174217 0.059350
0.091895 0.174817 0.059942
0.105848 0.175610 0.060726
0.124101 0.176649 0.061751
0.147635 0.177988 0.063073
0.177414 0.179682 0.064745
0.212910 0.181722 0.071186
0.253644 0.184820 0.077993
0.299526 0.188905 0.084907
0.349675 0.193795 0.091927
0.402436 0.199228 0.098948
0.455588 0.204890 0.105784
0.506747 0.210456 0.112213
0.553824 0.215649 0.118039
0.595362 0.220271 0.123125
0.630666 0.224223 0.127415
0.659721 0.227488 0.130928
0.683003 0.230111 0.133733
0.701264 0.232173 0.135927
0.715344 0.233764 0.137615
0.726060 0.234976 0.138898
0.734133 0.235890 0.139864
0.740170 0.236573 0.140586
0.744658 0.237082 0.141122
0.747981 0.237458 0.141519
0.750434 0.237736 0.141812
0.752240 0.237941 0.142027
0.753567 0.238091 0.142186
0.069381 0.213556 0.069891
0.071332 0.213850 0.069698
0.074452 0.214061 0.069906
0.078675 0.214346 0.070187
0.084370 0.214731 0.070567
0.092017 0.215248 0.071076
0.102217 0.215938 0.071755
0.115710 0.216850 0.072654
0.133361 0.218044 0.073829
0.156116 0.219583 0.075344
0.184908 0.221530 0.077261
0.220485 0.223937 0.079629
0.261992 0.226743 0.086790
0.308405 0.230575 0.094338
0.358918 0.235273 0.101834
0.411920 0.240563 0.109209
0.465230 0.246118 0.116307
0.516498 0.251605 0.122931
0.563659 0.256739 0.128900
0.605268 0.261318 0.134092
0.640636 0.265239 0.138462
0.669748 0.268482 0.142035
0.693082 0.271089 0.144884
0.711385 0.273139 0.147111
0.725501 0.274722 0.148824
0.736246 0.275928 0.150125
0.744341 0.276838 0.151105
0.750395 0.277518 0.151836
0.754897 0.278025 0.152380
0.758229 0.278399 0.152782
0.760689 0.278676 0.153079
0.762500 0.278880 0.153297
0.763832 0.279030 0.153458
0.083615 0.262571 0.084231
0.085402 0.262921 0.083952
0.088436 0.263153 0.084180
0.092543 0.263468 0.084489
0.098082 0.263892 0.084906
0.105518 0.264462 0.085465
0.115438 0.265222 0.086211
0.128560 0.266227 0.087197
0.145725 0.267541 0.088488
0.167852 0.269236 0.090152
0.195849 0.271380 0.092256
0.230444 0.274029 0.094857
0.271965 0.277207 0.097977
0.319071 0.280781 0.105665
0.370050 0.285243 0.113741
0.423379 0.290354 0.121550
0.476925 0.295773 0.128970
0.528377 0.301159 0.135833
0.575692 0.306217 0.141981
0.617440 0.310741 0.147306
0.652932 0.314620 0.151777
0.682155 0.317833 0.155424
0.705584 0.320418 0.158329
0.723966 0.322452 0.160598
0.738146 0.324024 0.162342
0.748940 0.325222 0.163667
0.757074 0.326125 0.164663
0.763158 0.326801 0.165408
0.767681 0.327304 0.165961
0.771031 0.327677 0.166370
0.773503 0.327952 0.166672
0.775323 0.328154 0.166894
0.776661 0.328303 0.167057
0.100438 0.319537 0.101182
0.102050 0.319948 0.100791
0.105015 0.320197 0.101035
0.109028 0.320533 0.101364
0.114442 0.320987 0.101809
0.121709 0.321597 0.102405
0.131404 0.322409 0.103201
0.144228 0.323484 0.104254
0.161002 0.324890 0.105631
0.182629 0.326702 0.107406
0.209993 0.328993 0.109651
0.243810 0.331823 0.112424
0.284406 0.335216 0.115753
0.331476 0.339145 0.119609
0.383087 0.343387 0.127574
0.436859 0.348276 0.135896
0.490754 0.353525 0.143699
0.542499 0.358781 0.150848
0.590074 0.363741 0.157209
0.632056 0.368190 0.162696
0.667757 0.372014 0.167287
0.697160 0.375186 0.171026
0.720740 0.377741 0.173999
0.739246 0.379753 0.176319
0.753524 0.381308 0.178102
0.764394 0.382494 0.179455
0.772587 0.383389 0.180472
0.778715 0.384058 0.181232
0.783272 0.384557 0.181796
0.786646 0.384926 0.182214
0.789137 0.385198 0.182522
0.790971 0.385399 0.182748
0.792319 0.385547 0.182915
0.119425 0.383174 0.120306
0.120864 0.383646 0.119792
0.123775 0.383907 0.120046
0.127714 0.384259 0.120391
0.133027 0.384733 0.120855
0.140160 0.385371 0.121479
0.149676 0.386220 0.122311
0.162264 0.387344 0.123411
0.178733 0.388813 0.124851
0.199967 0.390706 0.126706
0.226840 0.393099 0.129053
0.260061 0.396052 0.131953
0.299957 0.399592 0.135433
0.346243 0.403688 0.139468
0.397842 0.408239 0.143960
0.452244 0.412942 0.151926
0.506629 0.417982 0.160166
0.558802 0.423075 0.167642
0.606760 0.427910 0.174249
0.649084 0.432264 0.179921
0.685083 0.436016 0.184652
0.714739 0.439134 0.188495
0.738527 0.441650 0.191548
0.757198 0.443632 0.193926
0.771606 0.445166 0.195752
0.782576 0.446336 0.197138
0.790845 0.447220 0.198179
0.797030 0.447881 0.198956
0.801629 0.448373 0.199534
0.805035 0.448738 0.199961
0.807549 0.449007 0.200276
0.809400 0.449205 0.200507
0.810761 0.449351 0.200678
0.139829 0.451113 0.140825
0.141119 0.451637 0.140200
0.143987 0.451904 0.140462
0.147869 0.452265 0.140817
0.153105 0.452752 0.141296
0.160136 0.453406 0.141938
0.169516 0.454277 0.142795
0.181925 0.455430 0.143929
0.198163 0.456936 0.145412
0.219106 0.458875 0.147323
0.245620 0.461327 0.149742
0.278412 0.464351 0.152731
0.317818 0.467974 0.156320
0.363571 0.472165 0.160482
0.414624 0.476821 0.165120
0.469134 0.481769 0.170066
0.524188 0.486653 0.177779
0.576913 0.491555 0.185609
0.625361 0.496243 0.192482
0.668112 0.500485 0.198354
0.704473 0.504154 0.203236
0.734428 0.507209 0.207192
0.758456 0.509678 0.210328
0.777316 0.511627 0.212770
0.791869 0.513136 0.214642
0.802949 0.514288 0.216062
0.811301 0.515157 0.217128
0.817548 0.515809 0.217924
0.822194 0.516294 0.218515
0.825634 0.516653 0.218952
0.828173 0.516919 0.219275
0.830043 0.517114 0.219512
0.831417 0.517258 0.219686
0.160648 0.520149 0.161711
0.161841 0.520704 0.161015
0.164679 0.520974 0.161282
0.168520 0.521338 0.161644
0.173701 0.521830 0.162132
0.180659 0.522490 0.162787
0.189942 0.523370 0.163660
0.202228 0.524533 0.164816
0.218307 0.526053 0.166328
0.239052 0.528011 0.168278
0.265327 0.530484 0.170746
0.297843 0.533535 0.173797
0.336945 0.537191 0.177463
0.382383 0.541421 0.181717
0.433133 0.546122 0.186461
0.487370 0.551121 0.191525
0.542670 0.556193 0.196681
0.596058 0.560978 0.203928
0.645042 0.565514 0.211071
0.688246 0.569641 0.217145
0.724981 0.573225 0.222177
0.755236 0.576218 0.226246
0.779499 0.578641 0.229466
0.798540 0.580556 0.231970
0.813230 0.582041 0.233888
0.824413 0.583175 0.235342
0.832842 0.584032 0.236433
0.839146 0.584675 0.237247
0.843834 0.585153 0.237852
0.847305 0.585507 0.238299
0.849867 0.585769 0.238628
0.851754 0.585962 0.238871
0.853140 0.586103 0.239049
0.180813 0.586838 0.181879
0.181976 0.587400 0.181168
0.184794 0.587669 0.181439
0.188608 0.588034 0.181805
0.193755 0.588525 0.182299
0.200667 0.589184 0.182962
0.209891 0.590063 0.183847
0.222099 0.591225 0.185018
0.238082 0.592743 0.186550
0.258711 0.594699 0.188526
0.284850 0.597172 0.191028
0.317215 0.600223 0.194124
0.356159 0.603881 0.197845
0.401447 0.608117 0.202167
0.452065 0.612832 0.206993
0.506197 0.617853 0.212147
0.561420 0.622956 0.217401
0.615107 0.627901 0.222504
0.664639 0.632369 0.229105
0.708260 0.636397 0.235371
0.745326 0.639908 0.240545
0.775839 0.642849 0.244720
0.800298 0.645236 0.248019
0.819488 0.647124 0.250580
0.834288 0.648590 0.252541
0.845554 0.649710 0.254025
0.854044 0.650557 0.255140
0.860392 0.651192 0.255971
0.865113 0.651665 0.256587
0.868608 0.652015 0.257043
0.871187 0.652274 0.257379
0.873087 0.652465 0.257627
0.874483 0.652606 0.257808
0.199404 0.648214 0.200417
0.200594 0.648760 0.199743
0.203402 0.649028 0.200016
0.207202 0.649390 0.200385
0.212330 0.649878 0.200883
0.219217 0.650534 0.201552
0.228410 0.651408 0.202445
0.240579 0.652563 0.203627
0.256514 0.654075 0.205174
0.277086 0.656022 0.207169
0.303164 0.658485 0.209698
0.335464 0.661528 0.212827
0.374349 0.665181 0.216592
0.419587 0.669417 0.220968
0.470171 0.674140 0.225858
0.524282 0.679179 0.231085
0.579494 0.684311 0.236416
0.633169 0.689294 0.241598
0.682953 0.693914 0.246403
0.726948 0.697920 0.252220
0.764275 0.701379 0.257522
0.794984 0.704284 0.261791
0.819590 0.706645 0.265159
0.838887 0.708516 0.267771
0.853766 0.709969 0.269770
0.865089 0.711081 0.271282
0.873621 0.711922 0.272416
0.880000 0.712552 0.273262
0.884743 0.713022 0.273890
0.888254 0.713370 0.274353
0.890845 0.713628 0.274695
0.892753 0.713817 0.274947
0.894156 0.713957 0.275132
0.215800 0.702280 0.216727
0.217055 0.702799 0.216121
0.219858 0.703065 0.216396
0.223652 0.703425 0.216768
0.228772 0.703911 0.217270
0.235650 0.704563 0.217944
0.244830 0.705433 0.218843
0.256984 0.706583 0.220034
0.272902 0.708088 0.221592
0.293455 0.710029 0.223604
0.319515 0.712487 0.226154
0.351801 0.715526 0.229312
0.390678 0.719178 0.233113
0.435916 0.723422 0.237534
0.486505 0.728161 0.242477
0.540625 0.733228 0.247764
0.595839 0.738397 0.253158
0.649506 0.743424 0.258402
0.699268 0.748091 0.263267
0.743432 0.752239 0.267587
0.780978 0.755704 0.272538
0.811826 0.758587 0.276888
0.836532 0.760934 0.280315
0.855901 0.762796 0.282971
0.870832 0.764242 0.285002
0.882193 0.765349 0.286538
0.890751 0.766187 0.287689
0.897149 0.766815 0.288548
0.901906 0.767283 0.289184
0.905428 0.767631 0.289655
0.908026 0.767887 0.290002
0.909940 0.768076 0.290257
0.911346 0.768215 0.290444
0.229718 0.748142 0.230550
0.231050 0.748629 0.230023
0.233852 0.748894 0.230300
0.237646 0.749253 0.230674
0.242764 0.749737 0.231179
0.249639 0.750388 0.231857
0.258818 0.751256 0.232762
0.270970 0.752404 0.233961
0.286887 0.753908 0.235530
0.307442 0.755848 0.237556
0.333505 0.758306 0.240125
0.365799 0.761349 0.243307
0.404689 0.765012 0.247139
0.449942 0.769272 0.251598
0.500547 0.774038 0.256585
0.554677 0.779140 0.261921
0.609888 0.784352 0.267366
0.663537 0.789428 0.272660
0.713267 0.794143 0.277571
0.757388 0.798337 0.281932
0.795039 0.801925 0.285655
0.826005 0.804824 0.289734
0.850778 0.807163 0.293212
0.870195 0.809020 0.295904
0.885159 0.810464 0.297961
0.896544 0.811569 0.299517
0.905119 0.812406 0.300683
0.911529 0.813033 0.301552
0.916295 0.813500 0.302196
0.919822 0.813847 0.302672
0.922426 0.814103 0.303023
0.924343 0.814292 0.303281
0.925752 0.814431 0.303471
0.241160 0.785827 0.241904
0.242568 0.786284 0.241453
0.245370 0.786550 0.241731
0.249164 0.786909 0.242107
0.254284 0.787393 0.242615
0.261161 0.788044 0.243297
0.270342 0.788912 0.244207
0.282499 0.790062 0.245412
0.298422 0.791567 0.246991
0.318985 0.793511 0.249029
0.345059 0.795976 0.251614
0.377368 0.799029 0.254818
0.416274 0.802708 0.258676
0.461545 0.806992 0.263166
0.512162 0.811789 0.268189
0.566295 0.816930 0.273564
0.621497 0.822186 0.279049
0.675122 0.827307 0.284382
0.724815 0.832068 0.289329
0.768891 0.836303 0.293721
0.806496 0.839927 0.297471
0.837529 0.842924 0.300567
0.862366 0.845280 0.303832
0.881814 0.847135 0.306555
0.896800 0.848577 0.308634
0.908200 0.849682 0.310205
0.916786 0.850518 0.311383
0.923204 0.851145 0.312260
0.927975 0.851612 0.312911
0.931507 0.851959 0.313392
0.934113 0.852215 0.313746
0.936032 0.852404 0.314006
0.937443 0.852543 0.314198
0.250323 0.815997 0.250994
0.251795 0.816429 0.250606
0.254598 0.816695 0.250885
0.258394 0.817054 0.251263
0.263516 0.817540 0.251774
0.270397 0.818192 0.252459
0.279582 0.819062 0.253373
0.291744 0.820215 0.254584
0.307674 0.821724 0.256171
0.328247 0.823674 0.258220
0.354334 0.826148 0.260818
0.386657 0.829215 0.264039
0.425578 0.832913 0.267918
0.470861 0.837222 0.272433
0.521487 0.842050 0.277485
0.575617 0.847227 0.282891
0.630805 0.852522 0.288408
0.684404 0.857684 0.293771
0.734061 0.862483 0.298745
0.778097 0.866753 0.303160
0.815661 0.870406 0.306930
0.846656 0.873427 0.310042
0.871540 0.875858 0.312542
0.891024 0.877727 0.315093
0.906025 0.879169 0.317190
0.917436 0.880273 0.318773
0.926029 0.881109 0.319960
0.932453 0.881736 0.320845
0.937227 0.882204 0.321500
0.940762 0.882550 0.321985
0.943370 0.882807 0.322342
0.945290 0.882995 0.322604
0.946702 0.883134 0.322797
0.257508 0.839646 0.258120
0.259030 0.840058 0.257783
0.261835 0.840325 0.258064
0.265633 0.840685 0.258443
0.270757 0.841172 0.258955
0.277641 0.841826 0.259643
0.286830 0.842699 0.260561
0.298997 0.843855 0.261777
0.314935 0.845369 0.263370
0.335516 0.847327 0.265427
0.361613 0.849810 0.268037
0.393948 0.852891 0.271271
0.432880 0.856606 0.275167
0.478173 0.860938 0.279702
0.528801 0.865793 0.284776
0.582927 0.871002 0.290206
0.638099 0.876331 0.295746
0.691674 0.881526 0.301132
0.741300 0.886356 0.306127
0.785302 0.890654 0.310560
0.822832 0.894330 0.314343
0.853797 0.897370 0.317468
0.878654 0.899816 0.319977
0.898173 0.901739 0.321948
0.913197 0.903193 0.323902
0.924614 0.904297 0.325495
0.933213 0.905133 0.326690
0.939640 0.905760 0.327579
0.944418 0.906228 0.328239
0.947954 0.906574 0.328726
0.950564 0.906830 0.329085
0.952485 0.907019 0.329349
0.953897 0.907158 0.329543
0.263047 0.857877 0.263614
0.264610 0.858275 0.263317
0.267415 0.858542 0.263598
0.271214 0.858903 0.263979
0.276341 0.859391 0.264493
0.283227 0.860047 0.265183
0.292420 0.860922 0.266104
0.304592 0.862082 0.267324
0.320535 0.863601 0.268922
0.341123 0.865565 0.270986
0.367228 0.868058 0.273604
0.399572 0.871151 0.276849
0.438512 0.874882 0.280758
0.483810 0.879233 0.285308
0.534439 0.884111 0.290399
0.588559 0.889345 0.295847
0.643718 0.894701 0.301405
0.697271 0.899923 0.306808
0.746872 0.904777 0.311818
0.790847 0.909096 0.316263
0.828350 0.912789 0.320058
0.859291 0.915844 0.323191
0.884127 0.918301 0.325707
0.903629 0.920233 0.327683
0.918680 0.921726 0.329209
0.930113 0.922841 0.330680
0.938715 0.923676 0.331880
0.945145 0.924303 0.332773
0.949924 0.924771 0.333436
0.953462 0.925117 0.333925
0.956073 0.925374 0.334286
0.957995 0.925562 0.334551
0.959407 0.925701 0.334746
0.267263 0.871751 0.267797
0.268855 0.872137 0.267529
0.271662 0.872405 0.267811
0.275462 0.872767 0.268193
0.280590 0.873256 0.268707
0.287478 0.873914 0.269399
0.296674 0.874791 0.270322
0.308849 0.875954 0.271545
0.324797 0.877478 0.273147
0.345391 0.879447 0.275216
0.371502 0.881948 0.277841
0.403852 0.885050 0.281094
0.442798 0.888794 0.285013
0.488099 0.893161 0.289575
0.538728 0.898058 0.294679
0.592842 0.903312 0.300140
0.647988 0.908689 0.305712
0.701525 0.913930 0.311127
0.751106 0.918803 0.316148
0.795060 0.923138 0.320603
0.832543 0.926845 0.324406
0.863465 0.929911 0.327545
0.888286 0.932376 0.330066
0.907775 0.934315 0.332046
0.922815 0.935813 0.333575
0.934267 0.936954 0.334739
0.942881 0.937799 0.335830
0.949313 0.938426 0.336727
0.954094 0.938893 0.337391
0.957633 0.939240 0.337882
0.960244 0.939496 0.338244
0.962167 0.939685 0.338510
0.963580 0.939823 0.338706
0.270440 0.882203 0.270948
0.272054 0.882582 0.270703
0.274861 0.882850 0.270985
0.278663 0.883213 0.271367
0.283792 0.883703 0.271883
0.290682 0.884362 0.272576
0.299879 0.885241 0.273501
0.312057 0.886407 0.274726
0.328008 0.887934 0.276331
0.348606 0.889908 0.278405
0.374722 0.892415 0.281034
0.407076 0.895526 0.284293
0.446026 0.899279 0.288220
0.491330 0.903659 0.292791
0.541957 0.908570 0.297904
0.596066 0.913839 0.303375
0.651203 0.919232 0.308957
0.704727 0.924488 0.314381
0.754293 0.929375 0.319410
0.798230 0.933722 0.323873
0.835697 0.937439 0.327681
0.866606 0.940513 0.330825
0.891415 0.942984 0.333349
0.910895 0.944928 0.335332
0.925927 0.946429 0.336863
0.937374 0.947574 0.338029
